src/pos-icons/apple-finder.svg

<svg height="24" viewBox="0 0 24 24" width="24" xmlns="http://www.w3.org/2000/svg"><path d="m8 11c-.55 0-1-.45-1-1v-2c0-.55.45-1 1-1s1 .45 1 1v2c0 .55-.45 1-1 1m9-1v-2c0-.55-.45-1-1-1s-1 .45-1 1v2c0 .55.45 1 1 1s1-.45 1-1m5-5v15c0 1.1-.9 2-2 2h-16c-1.1 0-2-.9-2-2v-15c0-1.1.9-2 2-2h16c1.1 0 2 .9 2 2m-18 15h9.06c-.1-.65-.17-1.36-.23-2.06-.27.02-.53.06-.83.06-3.76 0-5.69-2.27-5.77-2.37-.35-.42-.29-1.05.13-1.41.42-.35 1.05-.29 1.41.13.06.08 1.46 1.65 4.23 1.65.27 0 .5-.03.74-.05-.03-1.2-.01-2.21 0-2.69h-1.81c-.65 0-1.18-.56-1.18-1.26.02-.25.32-4.18 1.25-7h-7zm16 0v-15h-7.4c-.86 2.19-1.23 5.73-1.33 6.76h1.81c.64 0 1.17.56 1.17 1.24 0 .04-.04 1.15-.01 2.6 1.3-.49 1.98-1.25 1.99-1.26.35-.42.98-.49 1.4-.14.43.35.49.98.14 1.41-.06.07-1.22 1.44-3.45 2.07.06.82.14 1.61.26 2.32z"/></svg>

<?xml version="1.0" encoding="UTF-8"?><!DOCTYPE svg PUBLIC "-//W3C//DTD SVG 1.1//EN" "http://www.w3.org/Graphics/SVG/1.1/DTD/svg11.dtd"><svg xmlns="http://www.w3.org/2000/svg" xmlns:xlink="http://www.w3.org/1999/xlink" version="1.1" id="mdi-apple-finder" width="24" height="24" viewBox="0 0 24 24"><path d="M8 11C7.45 11 7 10.55 7 10V8C7 7.45 7.45 7 8 7C8.55 7 9 7.45 9 8V10C9 10.55 8.55 11 8 11M17 10V8C17 7.45 16.55 7 16 7C15.45 7 15 7.45 15 8V10C15 10.55 15.45 11 16 11C16.55 11 17 10.55 17 10M22 5V20C22 21.1 21.1 22 20 22H4C2.9 22 2 21.1 2 20V5C2 3.9 2.9 3 4 3H20C21.1 3 22 3.9 22 5M4 20L13.06 20C12.96 19.35 12.89 18.64 12.83 17.94C12.56 17.96 12.3 18 12 18C8.24 18 6.31 15.73 6.23 15.63C5.88 15.21 5.94 14.58 6.36 14.22C6.78 13.87 7.41 13.93 7.77 14.35C7.83 14.43 9.23 16 12 16C12.27 16 12.5 15.97 12.74 15.95C12.71 14.75 12.73 13.74 12.74 13.26H10.93C10.28 13.26 9.75 12.7 9.75 12C9.77 11.75 10.07 7.82 11 5H4L4 20M20 20L20 5H12.6C11.74 7.19 11.37 10.73 11.27 11.76H13.08C13.72 11.76 14.25 12.32 14.25 13C14.25 13.04 14.21 14.15 14.24 15.6C15.54 15.11 16.22 14.35 16.23 14.34C16.58 13.92 17.21 13.85 17.63 14.2C18.06 14.55 18.12 15.18 17.77 15.61C17.71 15.68 16.55 17.05 14.32 17.68C14.38 18.5 14.46 19.29 14.58 20H20Z" /></svg>
